SVG-Logos/Security/jetstack-secure-logo.svg

<svg width="226" height="58" viewBox="0 0 226 58" fill="none" xmlns="http://www.w3.org/2000/svg">
<path d="M74.1538 50.6119C72.231 50.6119 70.3661 50.3571 68.559 49.8474C66.7752 49.3146 65.3388 48.6312 64.25 47.7971L66.1613 43.5576C67.2038 44.3221 68.4432 44.936 69.8796 45.3994C71.3159 45.8627 72.7522 46.0944 74.1886 46.0944C75.7871 46.0944 76.9686 45.8627 77.7331 45.3994C78.4976 44.9129 78.8799 44.2758 78.8799 43.4881C78.8799 42.9089 78.6482 42.434 78.1849 42.0633C77.7447 41.6695 77.1655 41.3567 76.4474 41.1251C75.7524 40.8934 74.8025 40.6386 73.5978 40.3606C71.7445 39.9204 70.2271 39.4802 69.0455 39.0401C67.864 38.5999 66.8447 37.8933 65.9875 36.9203C65.1535 35.9473 64.7365 34.6499 64.7365 33.0283C64.7365 31.6151 65.1188 30.3409 65.8833 29.2057C66.6478 28.0474 67.7945 27.1323 69.3235 26.4604C70.8757 25.7886 72.7638 25.4527 74.9879 25.4527C76.54 25.4527 78.0575 25.638 79.5401 26.0087C81.0228 26.3794 82.3202 26.9122 83.4322 27.6072L81.6947 31.8815C79.4475 30.6073 77.2003 29.9702 74.9531 29.9702C73.3778 29.9702 72.2078 30.2251 71.4433 30.7347C70.702 31.2444 70.3313 31.9162 70.3313 32.7503C70.3313 33.5843 70.7599 34.2098 71.6171 34.6268C72.4974 35.0206 73.8295 35.4144 75.6134 35.8083C77.4667 36.2485 78.9841 36.6886 80.1657 37.1288C81.3472 37.569 82.3549 38.264 83.1889 39.2138C84.0461 40.1637 84.4747 41.4494 84.4747 43.0711C84.4747 44.4611 84.0809 45.7353 83.2932 46.8936C82.5287 48.0288 81.3703 48.9323 79.8181 49.6042C78.266 50.276 76.3779 50.6119 74.1538 50.6119Z" fill="white"/>
<path d="M110.631 45.6774V50.1949H91.7964V25.8697H110.179V30.3872H97.3912V35.6693H108.685V40.0478H97.3912V45.6774H110.631Z" fill="white"/>
<path d="M130.159 50.6119C127.68 50.6119 125.433 50.0791 123.417 49.0134C121.425 47.9246 119.85 46.4303 118.691 44.5306C117.556 42.6078 116.989 40.4417 116.989 38.0323C116.989 35.6229 117.556 33.4684 118.691 31.5687C119.85 29.6459 121.425 28.1516 123.417 27.0859C125.433 25.9971 127.692 25.4527 130.194 25.4527C132.302 25.4527 134.202 25.8234 135.893 26.5647C137.607 27.306 139.043 28.3717 140.202 29.7617L136.588 33.0978C134.943 31.1981 132.904 30.2482 130.472 30.2482C128.966 30.2482 127.622 30.5841 126.441 31.256C125.259 31.9047 124.332 32.8198 123.661 34.0013C123.012 35.1828 122.688 36.5265 122.688 38.0323C122.688 39.5381 123.012 40.8818 123.661 42.0633C124.332 43.2449 125.259 44.1715 126.441 44.8434C127.622 45.492 128.966 45.8164 130.472 45.8164C132.904 45.8164 134.943 44.855 136.588 42.9321L140.202 46.2681C139.043 47.6813 137.607 48.7586 135.893 49.4999C134.178 50.2412 132.267 50.6119 130.159 50.6119Z" fill="white"/>
<path d="M158.082 50.6119C154.607 50.6119 151.897 49.6505 149.951 47.7276C148.028 45.8048 147.066 43.0595 147.066 39.4918V25.8697H152.696V39.2833C152.696 43.6387 154.503 45.8164 158.117 45.8164C159.878 45.8164 161.221 45.2951 162.148 44.2526C163.075 43.1869 163.538 41.5305 163.538 39.2833V25.8697H169.098V39.4918C169.098 43.0595 168.125 45.8048 166.179 47.7276C164.256 49.6505 161.557 50.6119 158.082 50.6119Z" fill="white"/>
<path d="M193.635 50.1949L188.943 43.4186H188.665H183.766V50.1949H178.136V25.8697H188.665C190.82 25.8697 192.685 26.2288 194.26 26.9469C195.859 27.6651 197.087 28.6845 197.944 30.005C198.801 31.3255 199.23 32.8893 199.23 34.6963C199.23 36.5033 198.789 38.0671 197.909 39.3876C197.052 40.6849 195.824 41.6811 194.225 42.3761L199.681 50.1949H193.635ZM193.53 34.6963C193.53 33.3294 193.09 32.2869 192.21 31.5687C191.33 30.8274 190.044 30.4567 188.353 30.4567H183.766V38.9358H188.353C190.044 38.9358 191.33 38.5651 192.21 37.8238C193.09 37.0825 193.53 36.0399 193.53 34.6963Z" fill="white"/>
<path d="M225.999 45.6774V50.1949H207.165V25.8697H225.548V30.3872H212.76V35.6693H224.053V40.0478H212.76V45.6774H225.999Z" fill="white"/>
<path d="M69.1869 20.7935C68.3949 20.7935 67.6643 20.6485 66.995 20.3585C66.3369 20.0573 65.7959 19.6335 65.3721 19.0869L66.8779 17.2799C67.5137 18.1388 68.2388 18.5682 69.053 18.5682C70.1573 18.5682 70.7095 17.9213 70.7095 16.6274V11.0557V11.0065V8.8806H73.4033V16.4768C73.4033 17.9157 73.0463 18.9977 72.3324 19.7227C71.6185 20.4366 70.57 20.7935 69.1869 20.7935Z" fill="white"/>
<path d="M85.6511 18.4176V20.5928H76.5825V8.8806H85.4336V11.0557H79.2763V13.5989H84.7141V15.7071H79.2763V18.4176H85.6511Z" fill="white"/>
<path d="M90.7358 11.0892H86.9879V8.8806H97.1942V11.0892H93.4463V20.5928H90.7358V11.0892Z" fill="white"/>
<path d="M102.921 20.7935C101.995 20.7935 101.097 20.6708 100.227 20.4254C99.3685 20.1689 98.6769 19.8398 98.1526 19.4383L99.0729 17.397C99.5748 17.7651 100.172 18.0607 100.863 18.2838C101.555 18.5069 102.246 18.6184 102.938 18.6184C103.708 18.6184 104.276 18.5069 104.644 18.2838C105.013 18.0495 105.197 17.7428 105.197 17.3635C105.197 17.0847 105.085 16.856 104.862 16.6775C104.65 16.4879 104.371 16.3373 104.025 16.2258C103.691 16.1143 103.233 15.9916 102.653 15.8577C101.761 15.6458 101.03 15.4338 100.462 15.2219C99.8927 15.01 99.4019 14.6698 98.9892 14.2013C98.5876 13.7328 98.3869 13.1081 98.3869 12.3273C98.3869 11.6469 98.5709 11.0334 98.939 10.4868C99.3071 9.92912 99.8592 9.48852 100.595 9.16504C101.343 8.84156 102.252 8.67982 103.323 8.67982C104.07 8.67982 104.801 8.76906 105.515 8.94753C106.228 9.126 106.853 9.38255 107.388 9.71719L106.552 11.7752C105.47 11.1617 104.388 10.8549 103.306 10.8549C102.547 10.8549 101.984 10.9776 101.616 11.223C101.259 11.4684 101.081 11.7919 101.081 12.1935C101.081 12.595 101.287 12.8962 101.7 13.097C102.124 13.2866 102.765 13.4762 103.624 13.6659C104.516 13.8778 105.247 14.0897 105.816 14.3017C106.385 14.5136 106.87 14.8482 107.271 15.3056C107.684 15.7629 107.89 16.382 107.89 17.1628C107.89 17.832 107.701 18.4455 107.322 19.0032C106.953 19.5498 106.396 19.9848 105.648 20.3083C104.901 20.6318 103.992 20.7935 102.921 20.7935Z" fill="white"/>
<path d="M112.507 11.0892H108.759V8.8806H118.966V11.0892H115.218V20.5928H112.507V11.0892Z" fill="white"/>
<path d="M128.051 18.083H122.613L121.576 20.5928H118.798L124.019 8.8806H126.696L131.933 20.5928H129.088L128.051 18.083ZM127.198 16.025L125.34 11.5409L123.483 16.025H127.198Z" fill="white"/>
<path d="M139.092 20.7935C137.898 20.7935 136.816 20.537 135.846 20.0239C134.886 19.4996 134.128 18.7802 133.57 17.8655C133.024 16.9397 132.75 15.8967 132.75 14.7367C132.75 13.5766 133.024 12.5393 133.57 11.6246C134.128 10.6988 134.886 9.97932 135.846 9.46621C136.816 8.94195 137.904 8.67982 139.108 8.67982C140.123 8.67982 141.038 8.8583 141.852 9.21524C142.678 9.57218 143.369 10.0853 143.927 10.7545L142.187 12.3608C141.395 11.4461 140.413 10.9888 139.242 10.9888C138.517 10.9888 137.87 11.1505 137.301 11.474C136.732 11.7863 136.286 12.2269 135.963 12.7958C135.65 13.3647 135.494 14.0116 135.494 14.7367C135.494 15.4617 135.65 16.1087 135.963 16.6775C136.286 17.2464 136.732 17.6926 137.301 18.0161C137.87 18.3284 138.517 18.4846 139.242 18.4846C140.413 18.4846 141.395 18.0217 142.187 17.0958L143.927 18.7021C143.369 19.3825 142.678 19.9012 141.852 20.2581C141.027 20.6151 140.107 20.7935 139.092 20.7935Z" fill="white"/>
<path d="M150.526 15.9916L148.953 17.6313V20.5928H146.259V8.8806H148.953V14.3519L154.14 8.8806H157.152L152.299 14.1009L157.436 20.5928H154.274L150.526 15.9916Z" fill="white"/>
<path d="M48.9072 2.50553C41.4934 0.973442 33.9546 0.134689 26.3872 0C18.8199 0.134672 11.2811 0.973054 3.86724 2.50444C2.77762 2.72079 1.79642 3.31088 1.09113 4.17398C0.385843 5.03708 0.000191351 6.11969 8.89201e-06 7.23699V21.711C-0.00101896 23.208 0.0870634 24.7038 0.263783 26.1902L2.88518 23.5509C3.07754 23.357 3.30605 23.2031 3.55761 23.0981C3.80917 22.9931 4.07884 22.9391 4.35119 22.9391C4.62354 22.9391 4.89322 22.9931 5.14478 23.0981C5.39634 23.2031 5.62484 23.357 5.81721 23.5509C6.01001 23.7444 6.16296 23.9743 6.26733 24.2274C6.37169 24.4805 6.42541 24.7517 6.42541 25.0257C6.42541 25.2997 6.37169 25.571 6.26733 25.8241C6.16296 26.0771 6.01001 26.307 5.81721 26.5005L1.21206 31.141C1.6163 32.6607 2.12174 34.1513 2.72495 35.6027L17.5737 20.6671C17.7662 20.4734 17.9948 20.3198 18.2463 20.215C18.4978 20.1102 18.7674 20.0562 19.0397 20.0562C19.312 20.0562 19.5816 20.1102 19.8331 20.215C20.0847 20.3198 20.3132 20.4734 20.5057 20.6671C20.6982 20.8608 20.851 21.0907 20.9552 21.3437C21.0593 21.5968 21.113 21.868 21.113 22.1419C21.113 22.4158 21.0593 22.687 20.9552 22.9401C20.851 23.1931 20.6982 23.423 20.5057 23.6167L4.65857 39.5578C5.41948 40.8974 6.25992 42.1896 7.17532 43.4274L31.4131 19.0443C31.8019 18.6531 32.3293 18.4334 32.8791 18.4334C33.429 18.4334 33.9563 18.6531 34.3452 19.0443C34.734 19.4354 34.9524 19.9659 34.9524 20.5191C34.9524 21.0722 34.734 21.6027 34.3452 21.9939L9.82069 46.6654C10.7998 47.7446 11.8303 48.7755 12.9086 49.7543L29.8 32.7594C29.9925 32.5658 30.221 32.4121 30.4726 32.3073C30.7241 32.2025 30.9937 32.1486 31.266 32.1486C31.5382 32.1486 31.8078 32.2025 32.0594 32.3073C32.3109 32.4121 32.5395 32.5658 32.732 32.7594C32.9245 32.9531 33.0772 33.183 33.1814 33.4361C33.2856 33.6891 33.3392 33.9604 33.3392 34.2343C33.3392 34.5082 33.2856 34.7794 33.1814 35.0324C33.0772 35.2855 32.9245 35.5154 32.732 35.7091L16.1208 52.4221C17.468 53.4485 18.7367 54.3081 19.8496 55.0033L26.9224 47.8815C27.1149 47.6878 27.3435 47.5342 27.595 47.4293C27.8466 47.3245 28.1162 47.2706 28.3884 47.2706C28.6607 47.2706 28.9303 47.3245 29.1818 47.4293C29.4334 47.5342 29.6619 47.6878 29.8544 47.8815C30.047 48.0751 30.1997 48.3051 30.3039 48.5581C30.4081 48.8112 30.4617 49.0824 30.4617 49.3563C30.4617 49.6302 30.4081 49.9014 30.3039 50.1544C30.1997 50.4075 30.047 50.6374 29.8544 50.8311L23.6154 57.1075C23.8868 57.238 24.034 57.3016 24.034 57.3016H24.0416C24.7565 57.7052 25.5625 57.9172 26.3823 57.9172C27.2021 57.9172 28.0081 57.7052 28.7231 57.3016H28.7285C28.7285 57.3016 52.769 46.8113 52.769 21.7197V7.23699C52.7688 6.12065 52.3838 5.03892 51.6797 4.17615C50.9755 3.31338 49.9957 2.72297 48.9072 2.50553V2.50553Z" fill="#6326D9"/>
</svg>

<svg xmlns="http://www.w3.org/2000/svg" fill="none" viewBox="0 0 226 58"><path fill="#fff" d="M74.154 50.612a20.51 20.51 0 0 1-5.595-.765c-1.784-.532-3.22-1.216-4.309-2.05l1.911-4.24c1.043.765 2.282 1.379 3.719 1.842 1.436.464 2.872.695 4.309.695 1.598 0 2.78-.231 3.544-.695.765-.486 1.147-1.123 1.147-1.91 0-.58-.232-1.055-.695-1.426-.44-.394-1.02-.706-1.738-.938-.695-.232-1.645-.486-2.85-.764-1.852-.44-3.37-.88-4.551-1.32a7.528 7.528 0 0 1-3.059-2.12c-.834-.974-1.25-2.271-1.25-3.893 0-1.413.382-2.687 1.146-3.822.765-1.159 1.912-2.074 3.44-2.746 1.553-.671 3.44-1.007 5.665-1.007 1.552 0 3.07.185 4.552.556 1.483.37 2.78.903 3.892 1.598l-1.737 4.274c-2.247-1.274-4.495-1.91-6.742-1.91-1.575 0-2.745.254-3.51.764-.741.51-1.112 1.181-1.112 2.015 0 .834.429 1.46 1.286 1.877.88.394 2.212.787 3.996 1.181 1.854.44 3.371.88 4.553 1.32a7.404 7.404 0 0 1 3.023 2.086c.857.95 1.286 2.235 1.286 3.857 0 1.39-.394 2.664-1.182 3.823-.764 1.135-1.923 2.038-3.475 2.71-1.552.672-3.44 1.008-5.664 1.008ZM110.631 45.677v4.518H91.796V25.87h18.383v4.517H97.391v5.282h11.294v4.379H97.391v5.63h13.24ZM130.159 50.612c-2.479 0-4.726-.533-6.742-1.599-1.992-1.088-3.567-2.583-4.726-4.482-1.135-1.923-1.702-4.09-1.702-6.499 0-2.41.567-4.564 1.702-6.463a12.059 12.059 0 0 1 4.726-4.483c2.016-1.089 4.275-1.633 6.777-1.633 2.108 0 4.008.37 5.699 1.112 1.714.741 3.15 1.807 4.309 3.197l-3.614 3.336c-1.645-1.9-3.684-2.85-6.116-2.85-1.506 0-2.85.336-4.031 1.008a7.032 7.032 0 0 0-2.78 2.745c-.649 1.182-.973 2.526-.973 4.031 0 1.506.324 2.85.973 4.031a7.274 7.274 0 0 0 2.78 2.78c1.181.649 2.525.973 4.031.973 2.432 0 4.471-.961 6.116-2.884l3.614 3.336a11.272 11.272 0 0 1-4.309 3.232c-1.715.741-3.626 1.112-5.734 1.112ZM158.082 50.612c-3.475 0-6.185-.962-8.131-2.884-1.923-1.923-2.885-4.669-2.885-8.236V25.87h5.63v13.413c0 4.356 1.807 6.533 5.421 6.533 1.761 0 3.104-.52 4.031-1.563.927-1.066 1.39-2.722 1.39-4.97V25.87h5.56v13.622c0 3.568-.973 6.313-2.919 8.236-1.923 1.922-4.622 2.884-8.097 2.884ZM193.635 50.195l-4.692-6.776h-5.177v6.776h-5.63V25.87h10.529c2.155 0 4.02.359 5.595 1.077 1.599.718 2.827 1.738 3.684 3.058.857 1.32 1.286 2.884 1.286 4.691s-.441 3.371-1.321 4.692c-.857 1.297-2.085 2.293-3.684 2.988l5.456 7.819h-6.046Zm-.105-15.499c0-1.367-.44-2.41-1.32-3.127-.88-.742-2.166-1.112-3.857-1.112h-4.587v8.479h4.587c1.691 0 2.977-.37 3.857-1.112.88-.741 1.32-1.784 1.32-3.128ZM225.999 45.677v4.518h-18.834V25.87h18.383v4.517H212.76v5.282h11.293v4.379H212.76v5.63h13.239ZM69.187 20.794a5.454 5.454 0 0 1-2.192-.436 4.259 4.259 0 0 1-1.623-1.271l1.506-1.807c.636.859 1.36 1.288 2.175 1.288 1.104 0 1.657-.647 1.657-1.94V8.88h2.693v7.596c0 1.439-.357 2.52-1.07 3.246-.715.714-1.763 1.07-3.146 1.07ZM85.651 18.418v2.175h-9.069V8.88h8.852v2.175h-6.158v2.543h5.438v2.108h-5.438v2.71h6.375ZM90.736 11.09h-3.748V8.88h10.206v2.21h-3.748v9.503h-2.71v-9.504ZM102.921 20.794a9.876 9.876 0 0 1-2.694-.369c-.859-.256-1.55-.585-2.074-.987l.92-2.041c.502.368 1.099.664 1.79.887a6.726 6.726 0 0 0 2.075.334c.77 0 1.338-.111 1.706-.334.369-.235.553-.541.553-.92a.84.84 0 0 0-.335-.687 2.294 2.294 0 0 0-.837-.451 15.717 15.717 0 0 0-1.372-.368c-.892-.212-1.623-.424-2.191-.636a3.622 3.622 0 0 1-1.473-1.02c-.401-.47-.602-1.094-.602-1.875 0-.68.184-1.294.552-1.84.368-.558.92-.998 1.656-1.322.748-.323 1.657-.485 2.728-.485.747 0 1.478.09 2.192.268a6.474 6.474 0 0 1 1.873.77l-.836 2.057c-1.082-.613-2.164-.92-3.246-.92-.759 0-1.322.123-1.69.368-.357.245-.535.569-.535.97 0 .402.206.703.619.904.424.19 1.065.38 1.924.569.892.212 1.623.424 2.192.636a3.557 3.557 0 0 1 1.455 1.004c.413.457.619 1.076.619 1.857 0 .669-.189 1.282-.568 1.84-.369.547-.926.982-1.674 1.305-.747.324-1.656.486-2.727.486ZM112.507 11.09h-3.748V8.88h10.207v2.21h-3.748v9.503h-2.711v-9.504ZM128.051 18.083h-5.438l-1.037 2.51h-2.778l5.221-11.712h2.677l5.237 11.712h-2.845l-1.037-2.51Zm-.853-2.058-1.858-4.484-1.857 4.484h3.715ZM139.092 20.794c-1.194 0-2.276-.257-3.246-.77a5.962 5.962 0 0 1-2.276-2.159c-.546-.925-.82-1.968-.82-3.128 0-1.16.274-2.198.82-3.112a5.801 5.801 0 0 1 2.276-2.159c.97-.524 2.058-.786 3.262-.786 1.015 0 1.93.178 2.744.535.826.357 1.517.87 2.075 1.54l-1.74 1.606c-.792-.915-1.774-1.372-2.945-1.372-.725 0-1.372.161-1.941.485a3.384 3.384 0 0 0-1.338 1.322c-.313.569-.469 1.216-.469 1.94 0 .726.156 1.373.469 1.941a3.501 3.501 0 0 0 1.338 1.34c.569.311 1.216.468 1.941.468 1.171 0 2.153-.463 2.945-1.39l1.74 1.607a5.422 5.422 0 0 1-2.075 1.556c-.825.357-1.745.536-2.76.536ZM150.526 15.992l-1.573 1.64v2.96h-2.694V8.882h2.694v5.47l5.187-5.47h3.012l-4.853 5.22 5.137 6.492h-3.162l-3.748-4.601Z"/><path fill="#6326D9" d="M48.907 2.506A122.003 122.003 0 0 0 26.387 0C18.82.135 11.281.973 3.867 2.504a4.79 4.79 0 0 0-2.776 1.67A4.842 4.842 0 0 0 0 7.237v14.474a37.722 37.722 0 0 0 .264 4.48l2.621-2.64a2.071 2.071 0 0 1 1.466-.612 2.06 2.06 0 0 1 1.466.612 2.084 2.084 0 0 1 .608 1.475 2.095 2.095 0 0 1-.608 1.474l-4.605 4.641c.404 1.52.91 3.01 1.513 4.462l14.849-14.936a2.072 2.072 0 0 1 1.466-.61 2.063 2.063 0 0 1 1.466.61 2.088 2.088 0 0 1 .45 2.273 2.088 2.088 0 0 1-.45.677L4.659 39.557a38.425 38.425 0 0 0 2.516 3.87l24.238-24.383a2.067 2.067 0 0 1 2.932 0 2.092 2.092 0 0 1 0 2.95L9.821 46.665c.979 1.08 2.01 2.11 3.088 3.09L29.8 32.758a2.072 2.072 0 0 1 1.466-.61 2.063 2.063 0 0 1 1.466.61 2.087 2.087 0 0 1 .607 1.475 2.096 2.096 0 0 1-.607 1.475L16.121 52.422a49.164 49.164 0 0 0 3.729 2.581l7.072-7.121a2.074 2.074 0 0 1 1.466-.611 2.062 2.062 0 0 1 1.466.61 2.085 2.085 0 0 1 .608 1.475 2.096 2.096 0 0 1-.608 1.475l-6.239 6.276c.272.131.419.195.419.195h.008a4.76 4.76 0 0 0 4.681 0h.006s24.04-10.49 24.04-35.582V7.237a4.843 4.843 0 0 0-1.09-3.06 4.79 4.79 0 0 0-2.772-1.671Z"/></svg>
